X:1315
T:Old Flail, The
M:6/8
L:1/8
R:jig
D:Cormac Breatnach and Martin Dunlea: Music for Whistle and Guitar
Z:Devin McCabe
K:G
DEG GAB|deg gab|age g2e|dBG AGE|
!DEG GAB|deg gab|age g2e|1dBG AGE:|2dBG ABd|
!:a3 aga|ega ega|dgg ged|fgd BAG|
!DEG GAB|deg gab|age g2e|1dBG A2z:|2dBG AGE||
